X:9
T:Kas a barh 1
C:trad
A:Bretagne
O:France
M:2/4
L:1/8
Q:1/4=80
K:G
dd/2e/2 cd|B>c d/2g/2g|dd/2e/2 cd|Bc d2:|
|:G G/2A/2 B>A|GG/2e/2 d2|1c/2d/2c/2A/2 BG/2A/2|B/2G/2A/2B/2 A2:|2c/2d/2
c/2A/2 BG|B/2G/2A/2^F/2 G2|
